X:1
T:The Fairy Reel
R:Reel
M:4/4
L:1/8
Q:160
K:G
B2 BA GBdB | cBAG FGAc | BG G2 cBAg | fgaf gfed |
B2BA GBdB | cBAG FGAc | BG G2 cBAG |1 FGAF G3 A :|2 FGAF G2 Bc ||
|:d2dB e2ed|cBcA d2dc|B2GB cBAG|fgaf gedc|
d2dB e2ed|cBcA d2dc|B2GB cBAG|1 FGAF G2Bc:|2 FGAF G3A||
